X: 2
T:B366- Peg a Ramsay, or Peggy Ramsey
S:(2nd/2)
Q:1/4=120
L:1/4
M:C|
K:C mixolydian
dddd|c2A2|GGG3/2A/|B2c2|\
dBG2|A^FD2|GGG3/2A/|B3c|]
